X:1
T:Hymns
T:Hymns
T:Joyful, Joyful, We Adore You
T:Text: Henry van Dyke, alt Tune: Ludwig van Beethoven, arr. by Edward Hodges
T:Hymn to  Joy https://hymnary.org/text/joyful_joyful_we_adore_thee
T:https://hymnary.org/text/come_ every_soul_by_sin_oppressed_theres 
T:Come, every soul 
T:John Hart Stockton, 1869, & Ira Sankey, 1873 
T:All Hail the Power of Jesus' Name
T:Coronation
T:Oliver Holden (1793) Edward Perronet (1780) 
T:https://hymnary.org/tune/coronation_holden
C:Various
Z:Orchestration by Benjamin Dumas
%%score { ( 1 4 ) | ( 2 3 ) }
L:1/8
M:4/4
K:G
V:1 treble nm="I Piano/\nOrgan" snm="I."
V:4 treble 
V:2 bass 
V:3 bass 
V:1
 [DB]2 [DB]2 [Dc]2 [Dd]2 | [Dd]2 c2 [GB]2 [DA]2 | [DG]2 [DG]2 [FA]2 [GB]2 | [GB]3 [FA] [FA]4 | %4
w: 3.~Al- ways gi- ving|and for- gi- ving,|E- ver bles- sing,|e- ver blest,|
w: 1.~Joy- ful, joy- ful,|we a- dore You,|God of glo- ry,|Lord of love;|
w: 2.~All Your works with|joy sur- round You,|Earth and heav'n re-|flect Your rays,|
w: ||||
w: ||||
 [GB]2 [DB]2 [Ec]2 [=Fd]2 | [=Fd]2 [Ec]2 [DB]2 [EA]2 | [DG]2 [DG]2 [FA]2 [GB]2 | [FA]3 G G4 | %8
w: Well- spring of the|joy of li- ving,|O- cean depth of|hap- py rest!|
w: Hearts un- fold like|flow'rs be- fore You,|O- p'ning to the|sun a- bove.|
w: Stars and an- gels|sing a- round You,|Cen- ter of un-|bro- ken praise;|
w: ||||
w: ||||
 [FA]2 [DA]2 [DB]2 G2 | [FA]2 (([GB][Fc])) [GB]2 G2 | [FA]2 (Bc) [FB]2 [^DA]2 | G2 [^CA]2 D4 | %12
w: Lo- ving Fa- ther,|Christ our _ Bro- ther,|Let Your _ light up-|on us shine;|
w: Melt the clouds of|sin and _ sad- ness;|Drive the _ dark of|doubt a- way;|
w: Field and for- est,|vale and _ moun- tain,|Flow'- ry _ mea- dow,|fla- shing sea,|
w: ||||
w: ||||
 [DB]2 [DB]2 [Ec]2 [=Fd]2 | [=Fd]2 [Ec]2 [DB]2 [EA]2 | [DG]2 [DG]2 [^FA]2 [GB]2 | [FA]3 G G4 |] %16
w: Teach us how to|love each o- ther,|Lift us to the|joy di- vine.|
w: Gi- ver of im-|mor- tal glad- ness,|Fill us with the|light of day!|
w: Chan- ting bird and|flo- wing foun- tain|Prais- ing You e-|ter- nal- ly!|
w: ||||
w: ||||
[K:G] [B,D]2 | [B,D]3 [CE] [B,D]2 [DG]2 | [GB]3 [GB] [DA]2 [DG]2 | [Gd]2 [Gd]2 [GB]2 G2 | %20
w: 1.~Come,|ev- ery soul by|sin op- pressed; There’s|mer- cy with the|
w: 2.~For|Je- sus shed His|pre- cious blood Rich|bless- ings to be-|
w: 3.~Yes,|Je- sus is the|truth, the way, That|leads you in- to|
w: 4.~Come,|then, and join this|ho- ly band, And|on to glo- ry|
w: 5.~O|Je- sus, bless- èd|Je- sus, dear, I’m|com- ing now to|
 [FA]6 [GB]2 | [Gd]3 [Gd] [GB]2 [DG]2 | [EG]3 [EG] [CE]2 [B,D]2 | [B,D]2 [DG]2 [GB]2 [FA]2 | %24
w: Lord, And|He will sure- ly|give you rest By|trust- ing in His|
w: stow; Plunge|now in- to the|crim- son flood That|wash- es white as|
w: rest; Be-|lieve in Him with-|out de- lay And|you are full- y|
w: go To|dwell in that ce-|les- tial land Where|joys im- mor- tal|
w: Thee; Since|Thou hast made the|way so clear And|full sal- va- tion|
 [DG]8 ||"^Refrain" [Gd]3 [GB] (BA) [DG]2 | [EG]3 [CE] [CE]2 [B,D]2 | D2 [DG]2 [GB]2 [DG]2 | %28
w: Word.|On- ly trust * Him,|on- ly trust Him,|On- * ly trust|
w: snow.||||
w: blessed.||||
w: flow.||||
w: free.||||
 [FA]8 | [Gd]3 [GB] (BA) [DG]2 | [EG]3 [CE] [CE]2 [B,D]2 | [B,D]2 [DG]2 [GB]2 [FA]2 | %32
w: Him|Just- * * * now|He will save you,|He will save you,|
w: ||||
w: ||||
w: ||||
w: ||||
"_now." [DG]6 |][K:G] D2 | G2 G2 B2 B2 | A2 G2 A2 B2 | A2 G2 B2 A2 | G6 A2 | B2 A2 G2 B2 | %39
w: just|1.All|hail the power of|Je- sus' name! Let|an- gels pros- trate|fall. Bring|forth the roy- al|
w: |2.O|seed of Is- rael's|cho- sen race now|ran- somed from the|fall, hail|him who saves you|
w: |3.Let|ev- ery tongue and|ev- ery tribe re-|spon- sive to his|call, to|him all maj- es-|
w: |4.Oh,|that with all the|sa- cred throng we|at his feet may|fall! We'll|join the ev- er-|
w: |||||||
 dc BA B2 d2 | d4 d4 | e4 (d2 ^c2) | d6 B2 | d2 B2 G2 B2 | AG AB A2 G2 | d4 c4 | (B3 c A2) A2 | %47
w: di- * a- * dem, and|crown him|Lord of *|all. Bring|forth the roy- al|di- * a- * dem, and|crown him|Lord * * of|
w: by * his * grace, and|crown him|Lord of *|all. Hail|him who saves you|by * his * grace, and|crown him|Lord * * of|
w: ty * as- * cribe, and|crown him|Lord of *|all. To|him all maj- es-|ty * as- * cribe, and|crown him|Lord * * of|
w: last- * ing * song and|crown him|Lord of *|all. We'll|join the ev- er-|last- * ing * song and|crown him|Lord * * of|
w: ||||||||
 G6 x2 |] %48
w: all!|
w: all!|
w: all!|
w: all.|
w: |
V:2
 G,2 G,2 A,2 [G,B,]2 | [D,B,]2 [D,A,]2 [D,G,]2 [C,F,]2 | [B,,G,]2 [B,,B,]2 [A,,C]2 [G,,D]2 | %3
w: |||
 [D,D]3 [D,D] [D,D]4 | [G,D]2 [G,D]2 [G,C]2 [G,B,]2 | [C,G,]2 [C,A,]2 [C,B,]2 [C,C]2 | %6
w: |||
 [D,B,]2 [D,B,]2 [D,C]2 [D,D]2 | [D,C]3 [G,B,] [G,B,]4 | [D,D]2 [D,F,]2 [D,G,]2 [D,B,]2 | %9
w: |||
 [D,C]2 (B,A,) [D,G,]2 [D,B,]2 | [D,C]2 (B,A,) [^D,B,]2 [B,,B,]2 | [E,B,]2 A,G, [D,F,]4 | %12
w: |||
 G,2 [G,D]2 [G,C]2 [G,B,]2 | [C,G,]2 [C,A,]2 [C,B,]2 [C,C]2 | [D,B,]2 [D,B,]2 [D,C]2 [D,D]2 | %15
w: |||
 [D,C]3 [G,B,] [G,B,]4 |][K:G] G,2 | G,3 G, G,2 [G,B,]2 | [G,D]3 [G,D] [G,C]2 [G,B,]2 | %19
w: |~|~ ~ ~ ~|~ ~ ~ ~|
 [G,,B,]2 [G,,B,]2 [G,,D]2 [B,,D]2 | [D,D]6 [G,D]2 | [G,B,]3 [G,B,] [G,D]2 [B,,D]2 | %22
w: ~ ~ ~ ~|~ ~|~ ~ ~ ~|
 [C,C]3 [C,C] [C,G,]2 [G,,G,]2 | [D,G,]2 [D,B,]2 [D,D]2 [D,C]2 | [G,B,]8 || %25
w: ~ ~ ~ ~|~ * * *||
 [G,B,]3 [G,D] (DC) [G,B,]2 | [C,C]3 [C,G,] [G,,G,]2 [G,,G,]2 | [G,B,]2 [G,B,]2 [G,D]2 [G,B,]2 | %28
w: |||
 [D,D]8 | [G,B,]3 [G,D] (DC) [G,B,]2 | [C,C]3 [C,G,] [G,,G,]2 [G,,G,]2 | %31
w: |||
 [D,G,]2 [D,B,]2 [D,D]2 [D,C]2 | [G,B,]6 |][K:G] D,2 | G,2 B,2 D2 D2 | D2 B,2 D2 D2 | %36
w: |||||
 C2 B,2 D2 C2 | B,6 A,2 | B,2 A,2 G,2 B,2 | DC B,A, B,2 A,2 | B,4 A,4 | B,4 A,4 | A,6 G,2 | %43
w: |||||||
 B,2 D2 D2 D2 | CB, CD C2 B,2 | D4 E4 | D6 C2 | B,6 x2 |] %48
w: |||||
V:3
 G,2 G,2 G,2 x2 | x8 | x8 | x8 | x8 | x8 | x8 | x8 | x8 | x2 D,2 x4 | x2 D,2 x4 | x2 A,,2 x4 | %12
w: ||||||||||||
 G,2 x2 x4 | x8 | x8 | x8 |][K:G] G,2 | G,3 G, G,2 x2 | x8 | x8 | x8 | x8 | x8 | x8 | x8 || %25
w: ||||~|~ ~ ~||||||||
 x4 G,2 x2 | x8 | x8 | x8 | x4 G,2 x2 | x8 | x8 | x6 |][K:G] D,2 | G,2 G,2 G,2 G,2 | %35
w: ||||||||||
 D,2 E,2 D,2 B,,2 | D,2 E,2 D,2 D,2 | G,,6 D,2 | G,2 D,2 B,,2 G,2 | B,A, G,F, G,2 D,2 | G,4 F,4 | %41
w: ||||||
 E,4 A,4 | D,6 G,2 | G,2 G,2 B,2 G,2 | D,2 D,2 D,2 E,2 | B,,4 C,4 | D,6 D,2 | G,,6 x2 |] %48
w: |||||||
V:4
 x8 | x2 (EF) x4 | x8 | x8 | x8 | x8 | x8 | x3 G G4 | x4 x2 G2 | x4 x2 G2 | x2 F2 x4 | %11
 (E=D) x2 D4 | x8 | x8 | x8 | x3 G G4 |][K:G] x2 | x8 | x8 | x8 | x8 | x8 | x8 | x8 | x8 || x8 | %26
 x8 | x8 | x8 | x4 G2 x2 | x8 | x8 | x6 |][K:G] D2 | B,2 D2 D2 G2 | F2 G2 F2 G2 | F2 G2 G2 F2 | %37
 x6 D2 | G2 D2 B,2 G2 | BA GF G2 F2 | G4 A4 | G4 (F2 E2) | F6 D2 | G2 G2 D2 G2 | D2 D2 D2 G2 | %45
 G4 G4 | G6 F2 | x6 x2 |] %48

